X: 2400
T: Baleu
R: jig
M: 6/8
K: Aminor
E2A A2c|B2A G2A|B2cd2c|BcB A3:|
efe d2e|c2B A3|B2c B2d|d2c B3|
efe d2e|c2B A3|B2c d2c|B3 A3:|

